!!!!SEGMENT: pl-gd--ee-1638--002-030_marenzio-luca--motettorum-pro-festis-totius-anni-in-festo-s-cecilie-virg-et-mart-cantatibus-organis.krn
!!!cenid: 15xx:1023
!!!COM: Marenzio, Luca
!!!COM-rismid: pe30003955
!!!CDT: ~1553-1599/08/22
!!!CNT: Italian
!!!GTL: Motettorum pro festis totius anni
!!!OTL: In festo S. Mariae ad Nives/Sancta Maria
!!!OMV: 020
!!!PDT: 1588
!!!AGN:
!!!SMS-siglum: PL-GD
!!!SMS-shelfmark: Ee 1638
!!!SMS-variant:
!!!SMS-altvar:
!!!SMS-shelfwork: 002-020 G
!!!NIFC-rismid: 980039238
!!!URL-scan: https://repozytorium.nifc.pl/islandora/object/pl-gd%3A57883/datastream/PDF/view
!!!ONB-nifc: UWAGA: Cantus: s. 631 (lewa), Altus: s. 479 (lewa), Tenor: s. 327 (lewa), Bassus: s. 175 (lewa)
!!!AIN: 1 alto 1 bass 1 soprn 1 tenor
!!!key: C
**kern	**text	**kern	**text	**kern	**text	**kern	**text
*part4	*part4	*part3	*part3	*part2	*part2	*part1	*part1
*staff4	*staff4	*staff3	*staff3	*staff2	*staff2	*staff1	*staff1
*I"BASSVS	*	*I"TENOR	*	*I"ALTVS	*	*I"CANTVS	*
*I'B	*	*I'T	*	*I'A	*	*I'S	*
*ICvox	*	*ICvox	*	*ICvox	*	*ICvox	*
*Ibass	*	*Itenor	*	*Ialto	*	*Isoprn	*
*clefC4	*	*clefC3	*	*clefC2	*	*clefG2	*
*k[]	*	*k[]	*	*k[]	*	*k[]	*
*C:	*	*C:	*	*C:	*	*C:	*
*M2/2	*	*M2/2	*	*M2/2	*	*M2/2	*
*met(C|)	*	*met(C|)	*	*met(C|)	*	*met(C|)	*
=1-	=1-	=1-	=1-	=1-	=1-	=1-	=1-
!LO:TX:a:t=In festo S. Cecilie virg. et mart.	!	!LO:TX:a:t=In festo S. Cecilie virg. et mart.	!	!	!	!LO:TX:a:t=In festo S. Cecilie virg. et mart.	!
00r	.	00r	.	1r	.	1a	CAn-
=2-	=2-	=2-	=2-	=2-	=2-	=2-	=2-
!	!	!	!	!LO:TX:a:t=In festo S. Cecilie virg. et mart.	!	!	!
.	.	.	.	1d	CAn-	2.dd\	-tan-
.	.	.	.	.	.	4dd\	-ti-
=3-	=3-	=3-	=3-	=3-	=3-	=3-	=3-
.	.	.	.	2.g\	-tan-	1dd	-bus
.	.	.	.	4g\	-ti-	.	.
=4-	=4-	=4-	=4-	=4-	=4-	=4-	=4-
.	.	.	.	1g	-bus	4b\	or-
.	.	.	.	.	.	4cc\	.
.	.	.	.	.	.	4dd\	.
.	.	.	.	.	.	4b\	.
=5-	=5-	=5-	=5-	=5-	=5-	=5-	=5-
00r	.	0r	.	4e/	or-	4cc\	.
.	.	.	.	4f\	.	4a/	.
.	.	.	.	4g\	.	4b/	.
.	.	.	.	4e/	.	4cc\	.
=6-	=6-	=6-	=6-	=6-	=6-	=6-	=6-
.	.	.	.	4f\	.	4dd\	.
.	.	.	.	4d/	.	4b\	.
.	.	.	.	4e/	.	4cc\	.
.	.	.	.	4f\	.	4dd\	.
=7-	=7-	=7-	=7-	=7-	=7-	=7-	=7-
.	.	1r	.	4g\	.	4ee\	.
.	.	.	.	4f\	.	4dd\	.
.	.	.	.	4f\	.	1dd\	.
.	.	.	.	8e/	.	.	.
.	.	.	.	8d/	.	.	.
=8-	=8-	=8-	=8-	=8-	=8-	=8-	=8-
.	.	1A	CAn-	2.e/	.	.	.
.	.	.	.	.	.	2cc#X\	-ga-
.	.	.	.	4e/	ga-	.	.
=9-	=9-	=9-	=9-	=9-	=9-	=9-	=9-
1D	CAn-	2.d\	-tan-	1f#X	-nis	2dd\	-nis
.	.	.	.	.	.	2a/	Can-
.	.	4d\	-ti-	.	.	.	.
*	*	*	*	*	*	*custos:b	*
!	!	!	!	!	!	!LO:LB:g=original	!
=10-	=10-	=10-	=10-	=10-	=10-	=10-	=10-
2.G/	-tan-	1d	-bus	2r	.	2.b/	-tan-
.	.	.	.	2d/	Can-	.	.
4G/	-ti-	.	.	.	.	4b/	-ti-
=11-	=11-	=11-	=11-	=11-	=11-	=11-	=11-
1G	-bus	4B/	or-	2.d/	-tan-	1b	-bus
.	.	4c/	.	.	.	.	.
.	.	4d\	.	.	.	.	.
.	.	4B/	.	4d/	-ti-	.	.
=12-	=12-	=12-	=12-	=12-	=12-	=12-	=12-
4E/	or-	4c/	.	1e	-bus	1r	.
4F/	.	4A/	.	.	.	.	.
4G/	.	4B/	.	.	.	.	.
4E/	.	4c/	.	.	.	.	.
=13-	=13-	=13-	=13-	=13-	=13-	=13-	=13-
4F/	.	4d\	.	0r	.	0r	.
4D/	.	4B/	.	.	.	.	.
4E/	.	4c/	.	.	.	.	.
4F/	.	4d\	.	.	.	.	.
=14-	=14-	=14-	=14-	=14-	=14-	=14-	=14-
4G/	.	4e\	.	.	.	.	.
4F/	.	4d\	.	.	.	.	.
4F/	.	1d\	.	.	.	.	.
8E/	.	.	.	.	.	.	.
8D/	.	.	.	.	.	.	.
=15-	=15-	=15-	=15-	=15-	=15-	=15-	=15-
2.E/	.	.	.	1r	.	1g	Can-
.	.	2c#X/	ga-	.	.	.	.
4E/	ga-	.	.	.	.	.	.
*custos:D	*	*	*	*custos:f#	*ij	*	*
!LO:LB:g=original	!	!	!	!LO:LB:g=original	!	!	!
=16-	=16-	=16-	=16-	=16-	=16-	=16-	=16-
2D/	-nis	2d\	-nis	2r	.	2.dd\	-tan-
2D/	Can-	2A/	Can-	2f#X\	Can-	.	.
.	.	.	.	.	.	4dd\	-ti-
*	*	*custos:B	*	*	*	*	*
!	!	!LO:LB:g=original	!	!	!	!	!
=17-	=17-	=17-	=17-	=17-	=17-	=17-	=17-
2.G/	-tan-	2.B/	-tan-	2.g\	-tan-	1dd	-bus
4G/	-ti-	4B/	-ti-	4g\	-ti-	.	.
=18-	=18-	=18-	=18-	=18-	=18-	=18-	=18-
1G	-bus	2B/	-bus	1g	-bus	2r	.
.	.	2B/	Can-	.	.	2dd\	Can-
*	*	*	*	*	*Xij	*	*
=19-	=19-	=19-	=19-	=19-	=19-	=19-	=19-
00r	.	2.e\	-tan-	2r	.	2.gg\	-tan-
.	.	.	.	2g\	Can-	.	.
.	.	4e\	-ti-	.	.	4gg\	-ti-
=20-	=20-	=20-	=20-	=20-	=20-	=20-	=20-
.	.	1cny	-bus	2.cc\	-tan-	1gg	-bus
.	.	.	.	4cc\	-ti-	.	.
=21-	=21-	=21-	=21-	=21-	=21-	=21-	=21-
.	.	4c/	or-	1cc	-bus	4ee\	or-
.	.	4d\	.	.	.	4ff\	.
.	.	4e\	.	.	.	4gg\	.
.	.	4c/	.	.	.	4ee\	.
=22-	=22-	=22-	=22-	=22-	=22-	=22-	=22-
.	.	2d\	.	4a\	or-	4ff\	.
.	.	.	.	4b\	.	4dd\	.
.	.	2c/	ga-	4cc\	.	4ee\	.
.	.	.	.	4a\	.	4ccny\	.
=23-	=23-	=23-	=23-	=23-	=23-	=23-	=23-
0r	.	2g\	-nis	4b\	.	4dd\	.
.	.	.	.	4g\	.	4ee\	.
.	.	2d\	Ce-	4a\	.	4ff\	.
.	.	.	.	4b\	.	4dd\	.
=24-	=24-	=24-	=24-	=24-	=24-	=24-	=24-
.	.	2c/	-ci-	4cc\	.	4ee\	.
.	.	.	.	4b\	.	4ff\	.
.	.	2e\	-li-	4b\	.	1gg\	.
.	.	.	.	8a\	.	.	.
.	.	.	.	8g\	.	.	.
*	*	*	*	*	*	*custos:ff#	*
!	!	!	!	!	!	!LO:LB:g=original	!
=25-	=25-	=25-	=25-	=25-	=25-	=25-	=25-
1D	Can-	2d\	-a	2.a\	.	.	.
.	.	1d/	vir-	.	.	2ff#X\	-ga-
.	.	.	.	4a\	ga-	.	.
=26-	=26-	=26-	=26-	=26-	=26-	=26-	=26-
2.G/	-tan-	.	.	0b	-nis	2gg\	-nis
.	.	2B/	-go	.	.	2dd\	can-
4G/	-ti-	.	.	.	.	.	.
=27-	=27-	=27-	=27-	=27-	=27-	=27-	=27-
1G	-bus	2r	.	.	.	2.gg\	-tan-
.	.	2d\	Can-	.	.	.	.
.	.	.	.	.	.	4gg\	-ti-
=28-	=28-	=28-	=28-	=28-	=28-	=28-	=28-
2r	.	2.g\	-tan-	2r	.	2gg\	-bus
*	*	*	*	*	*ij	*	*
2G/	Can-	.	.	2b\	Can-	2dd\	can-
.	.	4g\	-ti-	.	.	.	.
=29-	=29-	=29-	=29-	=29-	=29-	=29-	=29-
2.c\	-tan-	1g	-bus	2.cc\	-tan-	2.ee\	-tan-
4c\	-ti-	.	.	4cc\	-ti-	4ee\	-ti-
=30-	=30-	=30-	=30-	=30-	=30-	=30-	=30-
1c	-bus	4e\	or-	2g\	-bus	1ee	-bus
.	.	4f\	.	.	.	.	.
*	*	*custos:g	*	*custos:cc	*	*	*
!	!	!LO:LB:g=original	!	!LO:LB:g=original	!	!	!
.	.	4g\	.	2.cc\	or-	.	.
.	.	4e\	.	.	.	.	.
=31-	=31-	=31-	=31-	=31-	=31-	=31-	=31-
4A/	or-	4f\	.	.	.	0r	.
4B\	.	4d\	.	8b\	.	.	.
.	.	.	.	8a\	.	.	.
4c\	.	4e\	.	4g\	.	.	.
4A\	.	4c/	.	4a\	.	.	.
=32-	=32-	=32-	=32-	=32-	=32-	=32-	=32-
4B\	.	4d\	.	4g\	.	.	.
4G/	.	4B/	.	4e/	.	.	.
4A/	.	4c/	.	4fny\	.	.	.
4B\	.	4d\	.	4g\	.	.	.
*custos:c	*	*	*	*	*	*	*
!LO:LB:g=original	!	!	!	!	!	!	!
=33-	=33-	=33-	=33-	=33-	=33-	=33-	=33-
4c\	.	4e\	.	4a\	.	1r	.
4B\	.	4d\	.	4g\	.	.	.
4B\	.	4d\	.	1g\	.	.	.
8A/	.	8c\	.	.	.	.	.
8G/	.	8B/	.	.	.	.	.
=34-	=34-	=34-	=34-	=34-	=34-	=34-	=34-
2.A/	.	2.c/	.	.	.	1cc	Ce-
.	.	.	.	2f#X\	ga-	.	.
4A/	ga-	4c/	.	.	.	.	.
=35-	=35-	=35-	=35-	=35-	=35-	=35-	=35-
2G/	-nis	2.d\	ga-	2g\	-nis	2b/	-ci-
*	*	*	*	*	*Xij	*	*
2G/	Ce-	.	.	2d/	Ce-	2dd\	-li-
.	.	8c/	.	.	.	.	.
.	.	8B/	.	.	.	.	.
=36-	=36-	=36-	=36-	=36-	=36-	=36-	=36-
2F/	-ci-	1c	-nis	2fny\	-ci-	2a/	-a
2A/	-li-	.	.	2e/	-li-	2.cc\	vir-
=37-	=37-	=37-	=37-	=37-	=37-	=37-	=37-
1G	-a	2r	.	1g	-a	.	.
.	.	.	.	.	.	8b/	.
.	.	.	.	.	.	8a/	.
.	.	2d\	Ce-	.	.	4b/	.
.	.	.	.	.	.	4cc\	.
=38-	=38-	=38-	=38-	=38-	=38-	=38-	=38-
1d	Ce-	2f\	-ci-	2r	.	4dd\	.
.	.	.	.	.	.	4ee\	.
.	.	2d\	-li-	2a\	Ce-	4ffny\	.
.	.	.	.	.	.	4dd\	.
=39-	=39-	=39-	=39-	=39-	=39-	=39-	=39-
2c\	-ci-	1g	-a	2cc\	-ci-	4ee\	.
*	*	*	*	*	*	*custos:dd	*
!	!	!	!	!	!	!LO:LB:g=original	!
.	.	.	.	.	.	8dd\	.
.	.	.	.	.	.	8cc\	.
2e\	-li-	.	.	2g\	-li-	4b/	.
.	.	.	.	.	.	4cc\	.
=40-	=40-	=40-	=40-	=40-	=40-	=40-	=40-
1d	-a	2.f\	vir-	1a	-a	2.dd\	.
.	.	4e\	.	.	.	4cc\	.
=41-	=41-	=41-	=41-	=41-	=41-	=41-	=41-
*lig	*	*	*	*	*	*lig	*
1G	vir-	4d\	.	2.g\	vir-	1b	.
.	.	4c/	.	.	.	.	.
*	*	*custos:d	*	*	*	*	*
!	!	!LO:LB:g=original	!	!	!	!	!
.	.	1d\	.	.	.	.	.
.	.	.	.	4f\	.	.	.
=42-	=42-	=42-	=42-	=42-	=42-	=42-	=42-
1A	.	.	.	1e	.	1a	.
.	.	2c#X/	.	.	.	.	.
*Xlig	*	*	*	*	*	*Xlig	*
=43-	=43-	=43-	=43-	=43-	=43-	=43-	=43-
2D/	go	1d	go	2.f\	.	1a	go
2D/	in	.	.	.	.	.	.
.	.	.	.	4g\	.	.	.
=44-	=44-	=44-	=44-	=44-	=44-	=44-	=44-
1.d	cor-	2r	.	1a	go	1r	.
.	.	2d\	in	.	.	.	.
!	!	!	!	!LO:LB:g=original	!	!	!
=45-	=45-	=45-	=45-	=45-	=45-	=45-	=45-
.	.	2f\	cor-	1r	.	1a	in
2c\	-de	2e\	-de	.	.	.	.
*	*	*	*	*custos:d	*	*	*
!	!	!	!	!LO:LB:g=original	!	!	!
=46-	=46-	=46-	=46-	=46-	=46-	=46-	=46-
1B-X	ſu-	1g	ſu-	2r	.	1.dd	cor-
.	.	.	.	2d/	in	.	.
*custos:A	*	*	*	*	*	*	*
!LO:LB:g=original	!	!	!	!	!	!	!
=47-	=47-	=47-	=47-	=47-	=47-	=47-	=47-
1A	-o	1a	-o	2f\	cor-	.	.
.	.	.	.	2e/	-de	2cc\	-de
=48-	=48-	=48-	=48-	=48-	=48-	=48-	=48-
2r	.	1r	.	1g	ſu-	2.b-X/	ſu-
2G/	in	.	.	.	.	.	.
.	.	.	.	.	.	8a/	.
.	.	.	.	.	.	8g/	.
=49-	=49-	=49-	=49-	=49-	=49-	=49-	=49-
1.d	cor-	2r	.	0a	o	4f/	.
.	.	.	.	.	.	4e/	.
*	*	*	*ij	*	*	*	*
.	.	2d\	in	.	.	4f/	.
.	.	.	.	.	.	4g/	.
=50-	=50-	=50-	=50-	=50-	=50-	=50-	=50-
.	.	2f\	cor-	.	.	4a/	.
.	.	.	.	.	.	4d/	.
2c\	-de	2e\	-de	.	.	2.a/	.
=51-	=51-	=51-	=51-	=51-	=51-	=51-	=51-
1B-X	ſu-	1d	ſu-	0r	.	.	.
.	.	.	.	.	.	8g/	.
.	.	.	.	.	.	8f/	.
.	.	.	.	.	.	2g/	.
=52-	=52-	=52-	=52-	=52-	=52-	=52-	=52-
1A	o	1e	-o	.	.	1a	o
*	*	*	*Xij	*	*	*	*
=53-	=53-	=53-	=53-	=53-	=53-	=53-	=53-
2.G/	ſo-	2.g\	ſo-	2.b\	ſo-	2.dd\	ſo-
4E/	-li	4g\	-li	4cc\	-li	4ee\	-li
*	*	*	*	*	*	*custos:dd	*
!	!	!	!	!	!	!LO:LB:g=original	!
=54-	=54-	=54-	=54-	=54-	=54-	=54-	=54-
2G/	do-	2g\	do-	2b\	do-	2dd\	do-
2A/	-mi-	2e\	-mi-	2a\	-mi-	2cc\	-mi-
=55-	=55-	=55-	=55-	=55-	=55-	=55-	=55-
0.E	no	2.e\	.	2g\	-no	1bny	-no
.	.	.	.	2g\	de-	.	.
.	.	8d\	.	.	.	.	.
.	.	8cny\	.	.	.	.	.
=56-	=56-	=56-	=56-	=56-	=56-	=56-	=56-
.	.	2B/	no	2e/	-can-	2gg\	de-
.	.	2g\	de-	2.g\	-ta-	2ee\	-can-
=57-	=57-	=57-	=57-	=57-	=57-	=57-	=57-
.	.	2e\	-can-	.	.	2.gg\	-ta-
.	.	.	.	4f\	.	.	.
.	.	2.g\	-ta-	4e/	.	.	.
.	.	.	.	4d/	.	4ff\	.
=58-	=58-	=58-	=58-	=58-	=58-	=58-	=58-
0c	de-	.	.	4c/	.	4ee\	.
.	.	4f\	.	4d/	.	4dd\	.
*	*	*custos:e	*	*	*	*	*
!	!	!LO:LB:g=original	!	!	!	!	!
.	.	4e\	.	4e/	.	4cc\	.
.	.	4d\	.	4f\	.	4dd\	.
=59-	=59-	=59-	=59-	=59-	=59-	=59-	=59-
.	.	4c/	.	2g\	.	4ee\	.
.	.	4d\	.	.	.	4ff\	.
.	.	4e\	.	2c/	bat	2gg\	.
.	.	4f\	.	.	.	.	.
=60-	=60-	=60-	=60-	=60-	=60-	=60-	=60-
1c	-can-	2g\	.	2e/	de-	2cc\	-bat
.	.	2g\	bat	2c/	-can-	2ee\	de-
=61-	=61-	=61-	=61-	=61-	=61-	=61-	=61-
00A	-ta-	2a\	de-	2.e/	-ta-	2cc\	-cen-
.	.	2A/	-can-	.	.	2.ee\	-ta-
.	.	.	.	4d/	.	.	.
*	*	*	*	*custos:c	*	*	*
!	!	!	!	!LO:LB:g=original	!	!	!
=62-	=62-	=62-	=62-	=62-	=62-	=62-	=62-
.	.	2.e\	-ta-	4c/	.	.	.
.	.	.	.	4B/	.	4dd\	.
.	.	.	.	4A/	.	4cc\	.
.	.	4d\	.	4B/	.	4b/	.
=63-	=63-	=63-	=63-	=63-	=63-	=63-	=63-
.	.	4c/	.	4c/	.	4a/	.
.	.	4B/	.	4d/	.	4b/	.
.	.	4A/	.	2e/	.	4cc\	.
.	.	4B/	.	.	.	4dd\	.
=64-	=64-	=64-	=64-	=64-	=64-	=64-	=64-
.	.	4c\	.	2A/	bat	2ee\	.
.	.	4d\	.	.	.	.	.
.	.	2e\	.	2c/	de-	2a/	-bat
*	*	*	*	*	*	*custos:dd	*
!	!	!	!	!	!	!LO:LB:g=original	!
=65-	=65-	=65-	=65-	=65-	=65-	=65-	=65-
00G\	-bat	2g\	-bat	2B/	-can-	2dd\	de-
.	.	2G/	de-	2.d/	-ta-	2b/	-can-
=66-	=66-	=66-	=66-	=66-	=66-	=66-	=66-
.	.	2B/	-can-	.	.	2.dd\	-ta-
.	.	.	.	4c/	.	.	.
.	.	2.d\	-ta-	4B/	.	.	.
.	.	.	.	4A/	.	4cc\	.
=67-	=67-	=67-	=67-	=67-	=67-	=67-	=67-
.	.	.	.	4G/	.	4b/	.
.	.	4c/	.	4A/	.	4a/	.
.	.	4B/	.	4B/	.	4g/	.
.	.	4A/	.	4c/	.	4a/	.
=68-	=68-	=68-	=68-	=68-	=68-	=68-	=68-
.	.	2G/	.	2d/	.	2b/	.
.	.	2B/	-bat	2g\	bat	2dd\	-bat
=69-	=69-	=69-	=69-	=69-	=69-	=69-	=69-
2.c\	ſo-	2.e\	ſo-	2.g\	ſo-	2.cc\	ſo-
4A\	-li	4f\	-li	4a\	-li	4cc\	-li
*	*	*custos:e	*	*	*	*	*
!	!	!LO:LB:g=original	!	!	!	!	!
=70-	=70-	=70-	=70-	=70-	=70-	=70-	=70-
2c\	do-	2e\	do-	2g\	do-	2cc\	do-
2d\	-mi-	2d\	-mi-	2f\	-mi-	2a/	-mi-
=71-	=71-	=71-	=71-	=71-	=71-	=71-	=71-
1A	-no	2c/	-no	0.e	-no	1a	-no
.	.	2c/	de-	.	.	.	.
*custos:c	*	*	*	*	*	*	*
!LO:LB:g=original	!	!	!	!	!	!	!
=72-	=72-	=72-	=72-	=72-	=72-	=72-	=72-
2c\	de-	2A/	-can-	.	.	1r	.
2A/	-can-	2.c/	-ta-	.	.	.	.
=73-	=73-	=73-	=73-	=73-	=73-	=73-	=73-
2.c\	-ta-	.	.	.	.	0.cc	de-
.	.	4B/	.	.	.	.	.
.	.	4A/	.	.	.	.	.
4Bny\	.	4G/	.	.	.	.	.
=74-	=74-	=74-	=74-	=74-	=74-	=74-	=74-
4A/	.	4F/	.	2r	.	.	.
4G/	.	4G/	.	.	.	.	.
4F/	.	4A/	.	1a\	de-	.	.
4G/	.	4B/	.	.	.	.	.
=75-	=75-	=75-	=75-	=75-	=75-	=75-	=75-
4A/	.	4c/	.	.	.	.	.
4B\	.	4d\	.	.	.	.	.
2c\	.	2e\	.	2g\	-can-	.	.
=76-	=76-	=76-	=76-	=76-	=76-	=76-	=76-
2G/	-bat	1d	-bat	1g	-ta-	0.b	-can-
2G/	de-	.	.	.	.	.	.
*	*	*	*	*custos:g	*	*	*
!	!	!	!	!LO:LB:g=original	!	!	!
=77-	=77-	=77-	=77-	=77-	=77-	=77-	=77-
2E/	-can-	2r	.	2.g\	-bat	.	.
2.G/	-ta-	2d\	de-	.	.	.	.
.	.	.	.	8f\	.	.	.
.	.	.	.	8e\	.	.	.
=78-	=78-	=78-	=78-	=78-	=78-	=78-	=78-
.	.	2B/	-can-	2d/	de-	.	.
4F/	.	.	.	.	.	.	.
4E/	.	4g\	-ta-	1e\	-can-	.	.
4D/	.	4f\	.	.	.	.	.
=79-	=79-	=79-	=79-	=79-	=79-	=79-	=79-
4C/	.	4e\	.	.	.	1.gg	-ta-
4D/	.	4d\	.	.	.	.	.
4E/	.	2c/	.	2e/	-ta-	.	.
4F/	.	.	.	.	.	.	.
=80-	=80-	=80-	=80-	=80-	=80-	=80-	=80-
2G/	.	2B/	-bat	4d/	.	.	.
.	.	.	.	4e/	.	.	.
2D/	-bat	1d\	di-	4f\	.	2ff\	-bat
.	.	.	.	4g\	.	.	.
=81-	=81-	=81-	=81-	=81-	=81-	=81-	=81-
0A	di-	.	.	2a\	.	0ee	di-
.	.	4c/	.	2e/	bat	.	.
.	.	4B/	.	.	.	.	.
=82-	=82-	=82-	=82-	=82-	=82-	=82-	=82-
.	.	1c	.	1.a	di-	.	.
*custos:E	*	*	*	*	*	*	*
!LO:LB:g=original	!	!	!	!	!	!	!
=83-	=83-	=83-	=83-	=83-	=83-	=83-	=83-
0.E	-cens	0.B	-ces	.	.	0ee	-cens
.	.	.	.	4g#X\	.	.	.
.	.	.	.	4f#X\	.	.	.
=84-	=84-	=84-	=84-	=84-	=84-	=84-	=84-
.	.	.	.	1g#X	-cens	.	.
=85-	=85-	=85-	=85-	=85-	=85-	=85-	=85-
.	.	.	.	1r	.	1.b	fi-
=86-	=86-	=86-	=86-	=86-	=86-	=86-	=86-
00r	.	1.e	fi-	1.gny	fi-	.	.
.	.	.	.	.	.	2b/	-at
=87-	=87-	=87-	=87-	=87-	=87-	=87-	=87-
.	.	.	.	.	.	1.cc	do-
.	.	2e\	-at	2g\	-at	.	.
*	*	*custos:f	*	*	*	*	*
!	!	!LO:LB:g=original	!	!	!	!	!
=88-	=88-	=88-	=88-	=88-	=88-	=88-	=88-
.	.	1.f	do-	1.a	do-	.	.
.	.	.	.	.	.	2cc\	-mi-
*	*	*	*	*	*	*custos:cc	*
!	!	!	!	!	!	!LO:LB:g=original	!
=89-	=89-	=89-	=89-	=89-	=89-	=89-	=89-
.	.	.	.	.	.	2cc\	-ne
.	.	2f\	-mi-	2a\	-mi-	2cc\	cor
=90-	=90-	=90-	=90-	=90-	=90-	=90-	=90-
00r	.	2f\	-ne	2a\	-ne	1dd	me-
.	.	2f\	cor	2a\	cor	.	.
=91-	=91-	=91-	=91-	=91-	=91-	=91-	=91-
.	.	1g	me-	1b	me-	1dd	-um
=92-	=92-	=92-	=92-	=92-	=92-	=92-	=92-
.	.	1g	-um	1b	-um	2r	.
.	.	.	.	.	.	2b/	et
*	*	*	*	*custos:a	*	*	*
!	!	!	!	!LO:LB:g=original	!	!	!
=93-	=93-	=93-	=93-	=93-	=93-	=93-	=93-
.	.	2r	.	2r	.	1.dd	cor-
.	.	2d\	et	2a\	et	.	.
=94-	=94-	=94-	=94-	=94-	=94-	=94-	=94-
00r	.	2f#X\	cor-	2a\	cor-	.	.
.	.	2g\	pus	2b\	pus	2dd\	-pus
=95-	=95-	=95-	=95-	=95-	=95-	=95-	=95-
.	.	0c	me-	0cc	me-	0ee	me-
=96-	=96-	=96-	=96-	=96-	=96-	=96-	=96-
.	.	1.g	-um	1.b	-um	1dd	-um
=97-	=97-	=97-	=97-	=97-	=97-	=97-	=97-
0r	.	.	.	.	.	2b/	im-
.	.	2e\	im-	2g\	im-	1cc\	-ma-
=98-	=98-	=98-	=98-	=98-	=98-	=98-	=98-
.	.	2fny\	-ma-	2a\	-ma-	.	.
.	.	2g\	-cu-	2g\	-cu-	2b/	-cu-
=99-	=99-	=99-	=99-	=99-	=99-	=99-	=99-
1r	.	1d	-la-	1f#X	-la-	1a	-la-
=100-	=100-	=100-	=100-	=100-	=100-	=100-	=100-
2r	.	1d	-tum	1fny	-tum	1a	-tum
2d\	vt	.	.	.	.	.	.
=101-	=101-	=101-	=101-	=101-	=101-	=101-	=101-
2B\	non	2G/	vt	1g	vt	0dd	vt
2G/	con-	1g\	nõ(n)	.	.	.	.
=102-	=102-	=102-	=102-	=102-	=102-	=102-	=102-
1d	-ſun-	.	.	1a	nõ(n)	.	.
.	.	4f\	.	.	.	.	.
.	.	4e\	.	.	.	.	.
=103-	=103-	=103-	=103-	=103-	=103-	=103-	=103-
2G/	-dar	2d\	con-	1g	con-	2b/	non
*	*ij	*	*	*	*	*	*
2c\	vt	2.e\	.	.	.	2g/	con-
=104-	=104-	=104-	=104-	=104-	=104-	=104-	=104-
2A/	non	.	.	2.cc\	ſun-	2.a/	ſun-
.	.	4c/	.	.	.	.	.
2F/	con-	1f\	.	.	.	.	.
.	.	.	.	8b\	.	4b/	.
.	.	.	.	8a\	.	.	.
=105-	=105-	=105-	=105-	=105-	=105-	=105-	=105-
1c	ſun-	.	.	1g	.	1cc	.
.	.	4e\	.	.	.	.	.
.	.	4d\	.	.	.	.	.
=106-	=106-	=106-	=106-	=106-	=106-	=106-	=106-
2F/	-dar	2.c/	.	2a\	-dar	2cc\	-dar
*	*Xij	*	*	*	*	*	*
2A/	vt	.	.	2e/	vt	2cc\	vt
.	.	4B/	.	.	.	.	.
*	*	*custos:c	*	*	*	*	*
!	!	!LO:LB:g=original	!	!	!	!	!
=107-	=107-	=107-	=107-	=107-	=107-	=107-	=107-
2F/	non	4c/	.	2a\	non	2ff\	non
.	.	4A/	.	.	.	.	.
2D/	con-	1d\	.	2a\	con-	2ff\	con-
*	*	*	*	*	*	*custos:ee	*
!	!	!	!	!	!	!LO:LB:g=original	!
=108-	=108-	=108-	=108-	=108-	=108-	=108-	=108-
1A	ſun-	.	.	2.a\	ſun-	1ee	ſun-
.	.	4c/	.	.	.	.	.
.	.	4B/	.	4g\	.	.	.
=109-	=109-	=109-	=109-	=109-	=109-	=109-	=109-
2D/	-dar	2A/	ſun-	4f\	.	2dd\	-dar
.	.	.	.	4e/	.	.	.
*	*ij	*	*	*custos:d	*	*	*
!	!	!	!	!LO:LB:g=original	!	!	!
2G/	vt	2.B/	.	2d/	.	2b/	vt
*custos:E	*	*	*	*	*	*	*
!LO:LB:g=original	!	!	!	!	!	!	!
=110-	=110-	=110-	=110-	=110-	=110-	=110-	=110-
2E/	non	.	.	0.g	-dar	2ee\	non
.	.	4G/	.	.	.	.	.
2C/	con-	2.c/	.	.	.	2ee\	con-
=111-	=111-	=111-	=111-	=111-	=111-	=111-	=111-
1G	ſun-	.	.	.	.	1dd	ſun-
.	.	4B/	.	.	.	.	.
.	.	4B/	.	.	.	.	.
.	.	8c\	.	.	.	.	.
.	.	8d\	.	.	.	.	.
=112-	=112-	=112-	=112-	=112-	=112-	=112-	=112-
2C/	-dar	2.e\	.	.	.	0cc	-dar
2c\	vt	.	.	.	.	.	.
.	.	4d\	.	.	.	.	.
=113-	=113-	=113-	=113-	=113-	=113-	=113-	=113-
2A/	non	4e\	.	2r	.	.	.
.	.	4c/	.	.	.	.	.
2F/	con-	2.f\	.	2a\	vt	.	.
=114-	=114-	=114-	=114-	=114-	=114-	=114-	=114-
1c	-ſun-	.	.	1g	non	2r	.
.	.	8e\	.	.	.	.	.
.	.	8d\	.	.	.	.	.
.	.	2e\	.	.	.	1cc\	vt
=115-	=115-	=115-	=115-	=115-	=115-	=115-	=115-
2F/	-dar	1f	dar	2a\	con-	.	.
2f\	vt	.	.	4d/	ſun-	1a/	non
.	.	.	.	4e/	.	.	.
=116-	=116-	=116-	=116-	=116-	=116-	=116-	=116-
2d\	non	1r	.	4f\	.	.	.
.	.	.	.	4g\	.	.	.
2A/	con-	.	.	1a\	.	2cc\	con-
=117-	=117-	=117-	=117-	=117-	=117-	=117-	=117-
1e	-ſun-	2r	.	.	.	2.b/	ſun-
.	.	1e\	vt	2g#X\	.	.	.
.	.	.	.	.	.	8a/	.
.	.	.	.	.	.	8b/	.
=118-	=118-	=118-	=118-	=118-	=118-	=118-	=118-
2A/	-dar	.	.	2a\	dar	4cc\	.
.	.	.	.	.	.	4dd\	.
*	*	*	*	*	*ij	*	*
2A/	vt	1c\	non	2e/	vt	2.ee\	.
=119-	=119-	=119-	=119-	=119-	=119-	=119-	=119-
2F/	non	.	.	2a\	non	.	.
.	.	.	.	.	.	4dd\	.
2D/	con-	2f\	con	2a\	con-	1dd\	.
=120-	=120-	=120-	=120-	=120-	=120-	=120-	=120-
0A	-ſun-	0e	ſun-	0a	ſun-	.	.
.	.	.	.	.	.	4cc#X\	.
.	.	.	.	.	.	4b/	.
=121-	=121-	=121-	=121-	=121-	=121-	=121-	=121-
.	.	.	.	.	.	1cc#X	.
=122-	=122-	=122-	=122-	=122-	=122-	=122-	=122-
00D	-dar	00d	-dar	00f#X	dar	00dd	-dar.
==	==	==	==	==	==	==	==
*-	*-	*-	*-	*-	*-	*-	*-
!!!system-decoration: [(s1,s2,s3,s4)]
!!!ENC: Marta Opryszak
!!!END: 2022-07-04
!!!ENC: Jan Barakat
!!!END: 2022-07-28
